icons/Finance/shopping-bag-3-fill.svg

<svg viewBox="0 0 24 24" xmlns="http://www.w3.org/2000/svg"><path d="M6.50488 2H17.5049C17.8196 2 18.116 2.14819 18.3049 2.4L21.0049 6V21C21.0049 21.5523 20.5572 22 20.0049 22H4.00488C3.4526 22 3.00488 21.5523 3.00488 21V6L5.70488 2.4C5.89374 2.14819 6.19013 2 6.50488 2ZM18.5049 6L17.0049 4H7.00488L5.50488 6H18.5049ZM9.00488 10H7.00488V12C7.00488 14.7614 9.24346 17 12.0049 17C14.7663 17 17.0049 14.7614 17.0049 12V10H15.0049V12C15.0049 13.6569 13.6617 15 12.0049 15C10.348 15 9.00488 13.6569 9.00488 12V10Z"/></svg>

<svg xmlns="http://www.w3.org/2000/svg" viewBox="0 0 24 24">
    <g>
        <path fill="none" d="M0 0h24v24H0z"/>
        <path d="M6.5 2h11a1 1 0 0 1 .8.4L21 6v15a1 1 0 0 1-1 1H4a1 1 0 0 1-1-1V6l2.7-3.6a1 1 0 0 1 .8-.4zm12 4L17 4H7L5.5 6h13zM9 10H7v2a5 5 0 0 0 10 0v-2h-2v2a3 3 0 0 1-6 0v-2z"/>
    </g>
</svg>
